www/images/help.svg

<svg fill="none" height="16" viewBox="0 0 16 16" width="16" xmlns="http://www.w3.org/2000/svg"><path d="m3.40625 12.5938c-.575-.575-.19375-1.7813-.4875-2.4876-.29375-.7062-1.41875-1.32495-1.41875-2.1062s1.1125-1.375 1.41875-2.10625-.0875-1.9125.4875-2.4875 1.78125-.19375 2.4875-.4875 1.325-1.41875 2.10625-1.41875 1.375 1.1125 2.1062 1.41875c.7313.30625 1.9126-.0875 2.4876.4875.5749.575.1937 1.78125.4875 2.4875.2937.70625 1.4187 1.325 1.4187 2.10625s-1.1125 1.375-1.4187 2.1062c-.3063.7313.0874 1.9126-.4875 2.4876-.575.5749-1.7813.1937-2.4876.4875-.7062.2937-1.32495 1.4187-2.1062 1.4187s-1.375-1.1125-2.10625-1.4187c-.73125-.3063-1.9125.0874-2.4875-.4875z" opacity=".3" stroke="#f36313" stroke-linecap="round" stroke-linejoin="round"/><path d="m8 12c.55228 0 1-.4477 1-1s-.44772-1-1-1-1 .4477-1 1 .44772 1 1 1z" fill="#f36313"/><path d="m8 8.5c.34612 0 .68446-.10264.97225-.29493.28778-.19229.51209-.4656.64454-.78537s.16711-.67164.09958-1.01111c-.06752-.33946-.23419-.65128-.47893-.89603-.24474-.24474-.55657-.41141-.89603-.47893-.33947-.06753-.69134-.03287-1.01111.09958s-.59308.35676-.78537.64454c-.19229.28779-.29493.62613-.29493.97225" stroke="#f36313" stroke-linecap="round" stroke-linejoin="round"/></svg>

<svg width="16" height="16" viewBox="0 0 16 16" fill="none" xmlns="http://www.w3.org/2000/svg">
<path opacity="0.3" d="M3.40625 12.5938C2.83125 12.0188 3.2125 10.8125 2.91875 10.1062C2.625 9.4 1.5 8.78125 1.5 8C1.5 7.21875 2.6125 6.625 2.91875 5.89375C3.225 5.1625 2.83125 3.98125 3.40625 3.40625C3.98125 2.83125 5.1875 3.2125 5.89375 2.91875C6.6 2.625 7.21875 1.5 8 1.5C8.78125 1.5 9.375 2.6125 10.1062 2.91875C10.8375 3.225 12.0188 2.83125 12.5938 3.40625C13.1687 3.98125 12.7875 5.1875 13.0813 5.89375C13.375 6.6 14.5 7.21875 14.5 8C14.5 8.78125 13.3875 9.375 13.0813 10.1062C12.775 10.8375 13.1687 12.0188 12.5938 12.5938C12.0188 13.1687 10.8125 12.7875 10.1062 13.0813C9.4 13.375 8.78125 14.5 8 14.5C7.21875 14.5 6.625 13.3875 5.89375 13.0813C5.1625 12.775 3.98125 13.1687 3.40625 12.5938Z" stroke="#F36313" stroke-linecap="round" stroke-linejoin="round"/>
<path d="M8 12C8.55228 12 9 11.5523 9 11C9 10.4477 8.55228 10 8 10C7.44772 10 7 10.4477 7 11C7 11.5523 7.44772 12 8 12Z" fill="#F36313"/>
<path d="M8 8.5C8.34612 8.5 8.68446 8.39736 8.97225 8.20507C9.26003 8.01278 9.48434 7.73947 9.61679 7.4197C9.74924 7.09993 9.7839 6.74806 9.71637 6.40859C9.64885 6.06913 9.48218 5.75731 9.23744 5.51256C8.9927 5.26782 8.68087 5.10115 8.34141 5.03363C8.00194 4.9661 7.65007 5.00076 7.3303 5.13321C7.01053 5.26566 6.73722 5.48997 6.54493 5.77775C6.35264 6.06554 6.25 6.40388 6.25 6.75" stroke="#F36313" stroke-linecap="round" stroke-linejoin="round"/>
</svg>
